svg/u1f3b0.svg

<svg viewBox="0 0 128 128" xmlns="http://www.w3.org/2000/svg">
  <path d="M105.77,90.9l8.13-0.05l0.16-17.62l5.14,0.08c0,0-0.16,18.85-0.16,20.15c0,1.31-0.82,2.61-1.96,2.77 c-1.14,0.16-10.12,0.16-10.12,0.16L105.77,90.9z" fill="#9A9A9A"/>
  <path d="M109.29,67.63c-0.12,3.96,2.25,7.82,7.56,7.77c5.31-0.05,7.15-3.26,7.26-7.21 c0.1-3.56-2.15-7.97-7.51-7.82C111.75,60.51,109.39,64.33,109.29,67.63z" fill="#DB0D2B"/>
  <path d="M111.89,68.69c1.85,0.8,1.93-1.33,2.94-2.74c1.02-1.42,2.72-1.97,1.77-3.12 c-0.59-0.71-2.53-1.38-4.43,1.08C110.87,65.58,110.33,68.01,111.89,68.69z" fill="#FFFFFF"/>
  <path d="M6.38,100.31c0,0,0-41.59,0.41-48.68c0.41-7.09,6.68-26.32,30.27-34.09S82.83,18.43,91.59,26 c16.09,13.91,15.82,26.86,15.82,26.86l0.14,46.36c0,0,3.15,4.07,3.15,5.16c0,1.09-0.02,3.56-0.02,3.56L3.1,108.22 c0,0-0.1-2.9,0.44-4.13S6.38,100.31,6.38,100.31z" fill="#CACACA"/>
  <path d="M55.88,4.67c-4.87,0-7.98,3.23-8.95,5.66c-0.84,2.12-0.91,4.93-0.91,4.93s2.57,0.54,10.04,0.54 s9.44-0.71,9.44-0.71s0.35-3.02-0.79-5.1C63.41,7.61,60.98,4.67,55.88,4.67z" fill="#DB0A27"/>
  <path d="M47.85,12.81c1.28,1.54,3.93,0.67,6.31-1.23c1.97-1.58,4.17-4.56,3.01-5.56 c-1.67-1.43-4.52-0.47-7.03,1.48C48.58,8.72,46.71,11.45,47.85,12.81z" fill="#FF4E23"/>
  <path d="M49.19,11.62c0.79,0.63,1.89-0.51,3.38-1.76c1.26-1.05,3.14-2.14,2.41-3.03 c-0.74-0.9-2.71-0.08-4.13,1.06C49.59,8.88,47.96,10.64,49.19,11.62z" fill="#FFFDFD"/>
  <path d="M3.35,105.01c-0.49,0.86-0.74,15.1,0.44,15.99c1.18,0.89,23.69,0.15,53.44,0.15 s51.51-0.15,52.55-1.48c1.49-1.92,1.42-14.76,0.97-15.5c-0.86-1.44-27.77-0.19-53.67-0.04C30.43,104.27,4.12,103.65,3.35,105.01z" fill="#9A9A9A"/>
  <path d="M8.97,108.27c-1.04,0.44-1.18,8.59,0,8.88c1.44,0.36,33.92,0.09,47.54,0.09s47.35,0.5,48.68-0.68 c1.33-1.18,1.21-7.63,0.32-8.67c-0.89-1.04-35.7-0.21-48.73-0.21S11.1,107.35,8.97,108.27z" fill="#858585"/>
  <path d="M11.64,51.42c-0.3,1.04-0.44,45.59,0,45.89c0.44,0.3,90,0.59,90.89-0.3 c0.89-0.89,0.3-44.85,0.15-45.74c-0.15-0.89-46.04-1.92-46.04-1.92L11.64,51.42z" fill="#6F7178"/>
  <path d="M14.73,54.74c-0.17,0.46,0.09,39.48,0.51,39.91c0.43,0.43,84.02-0.17,84.45-0.51 c0.43-0.34,0.34-39.35,0-39.65C99.35,54.18,14.9,54.26,14.73,54.74z" fill="#3A3839"/>
  <path d="M57.34,18.42c-20.06-0.18-32.33,8.99-37.92,16.41s-8.65,14.27-7.79,16.59 c0.23,0.63,14.72,0.06,44.01,0.18c29.29,0.12,46.55,0.56,47.03-0.33c0.49-0.89-1.51-10.96-12.4-20.33 C81.53,23.4,71.2,18.54,57.34,18.42z" fill="#FFDB8B"/>
  <path d="M14.88,48.54c0,0,9.93-27.86,41.53-27.59c34.61,0.3,41.63,27.39,41.63,27.39L14.88,48.54z" fill="#FFAF29"/>
  <path d="M29.89,34.82c-5.97,5.42-8.58,11.02-8.58,11.02s22.26,0.46,22.32,0.12 C43.7,45.53,29.89,34.82,29.89,34.82z" fill="#FFD61C"/>
  <path d="M43.69,26.61c-4.02,1.3-7.45,3.15-10.32,5.2c3.78,3.44,14.23,11.42,15.65,12.43 c1.69,1.2,2.25,1.85,2.63,1.62c0.31-0.18-0.53-1.76-0.8-2.41C50.38,42.3,45.18,30.71,43.69,26.61z" fill="#FFD61C"/>
  <path d="M62.48,25.24c-2.06-0.32-4.63-0.62-6.91-0.6c-2.78,0.02-4.67,0.3-7.07,0.78 c0,0,7.88,19.49,8.05,19.96c0.18,0.47,0.58,0.95,0.8,0C57.56,44.44,62.48,25.24,62.48,25.24z" fill="#FFD61C"/>
  <g>
    <path d="M70.67,46.13c0.14,0.31,21.56,0.13,21.56,0.13s-3.06-5.83-9.48-11.41 C82.75,34.84,70.41,45.54,70.67,46.13z" fill="#FFD61C"/>
    <path d="M78.96,31.72c-3.26-2.28-7.13-4.32-11.67-5.64c-1.27,4.8-4.05,16.43-4.33,17.9 c-0.11,0.55-0.5,1.72-0.23,1.94c0.28,0.23,1.29-0.42,2.16-1.26C65.88,43.7,78.96,31.72,78.96,31.72z" fill="#FFD61C"/>
  </g>
  <path d="M41.57,74.52c-0.18-9.43,2.24-14.88,3.48-17.03l-21.64,0.03c0,0-5.34,6.65-5.43,16.3 c-0.09,9.65,5.06,17.99,5.06,17.99l21.91-0.09C43.9,89.52,41.75,83.88,41.57,74.52z" fill="#FFFFFF"/>
  <g>
    <path d="M70.17,74.52c0.3-8.71-1.83-14.6-2.95-17.06l-19.89,0.03c-1.22,2.91-3.4,9.21-3.22,16.87 c0.19,8.35,2.38,14.95,3.29,17.36l20.51-0.08C68.6,88.96,69.87,82.99,70.17,74.52z" fill="#FFFFFF"/>
    <path d="M91.71,57.43l-21.75,0.03c1.29,3.21,3.4,9.78,3,17.64c-0.41,7.91-1.83,14.01-2.51,16.52l20.61-0.09 c0,0,5.25-6.37,5.72-16.3C97.24,65.3,91.71,57.43,91.71,57.43z" fill="#FFFFFF"/>
  </g>
  <path d="M27.65,91.81l9.89-0.05c0,0-0.76-2.78-4.52-2.68C29.18,89.2,27.65,91.81,27.65,91.81z" fill="#FAB037"/>
  <path d="M54.08,91.7l7.58-0.04c0,0-0.07-2.29-3.78-2.24C54.68,89.46,54.21,91.44,54.08,91.7z" fill="#FFD429"/>
  <path d="M78.53,91.6l8.77-0.05c0,0,0.45-2.5-1.81-2.7c-1.92-0.17-2.39,1.62-2.39,1.62s-0.42-1.29-2.09-1.32 C79,89.11,78.44,91.3,78.53,91.6z" fill="#A75FB7"/>
  <path d="M76.73,57.45l11.51-0.02c0,0,0.07,3.58-4.42,3.67C77.42,61.23,76.73,57.45,76.73,57.45z" fill="#FEBF21"/>
  <path d="M53.31,57.47c0,0-0.73,2.47-0.22,2.95c0.6,0.55,8.66,0.66,9.22-0.02c0.56-0.69-0.14-2.94-0.14-2.94 L53.31,57.47z" fill="#5B6467"/>
  <path d="M27.29,57.5l11.5-0.02c0,0,0.11,2.93-5.06,2.99C27.87,60.55,27.29,57.5,27.29,57.5z" fill="#4E9226"/>
  <path d="M51.64,66.61c-0.43,0.03-1.07-1.79-1.84-1.62c-0.77,0.17-1.84,0.38-1.62,5.34s0.6,5.38,1.58,5.34 c0.98-0.04,2.48-2.9,2.48-2.9s1.05-0.45,1.78-0.5c0.73-0.04,1.25,0.62,2.15,0.92c0.9,0.3,2.18,0.34,2.18,0.34s-3.03,2.56-4.06,5.85 s-1.07,6.53-0.81,6.74c0.26,0.21,8.07,0.3,8.37,0.09c0.3-0.21-0.13-9.05,1.45-11.82c1.58-2.77,3.71-6.1,3.71-6.1 s-0.81-2.18-1.49-2.43c-0.68-0.26-2.13,0.81-3.93,0.73c-1.79-0.09-3.89-1.87-4.95-2.18C54.84,63.88,52.92,66.52,51.64,66.61z" fill="#FF2B26"/>
  <path d="M24.66,66.4c-0.43,0.03-1.03-1.42-1.82-1.47c-0.91-0.06-1.58,0.08-1.64,5.03 c-0.05,4.86,0.62,5.86,1.6,5.82s2.47-3.08,2.47-3.08s0.8-0.5,1.55-0.25c0.69,0.23,1.23,0.68,2.28,0.83c0.94,0.13,2,0.29,2,0.29 s-2.75,2.47-3.78,5.75c-1.02,3.29-1.07,6.53-0.81,6.74c0.26,0.21,8.07,0.3,8.37,0.09c0.3-0.21,0.06-8.75,1.64-11.53 s3.53-6.4,3.53-6.4s-0.81-2.18-1.49-2.43c-0.68-0.26-2.46,0.59-4.25,0.5c-1.79-0.09-3.74-1.73-4.84-1.89 C27.43,64.1,25.94,66.32,24.66,66.4z" fill="#FF2B26"/>
  <path d="M78.86,65.9c-0.43,0.03-1.19-1.5-1.95-1.33c-0.77,0.17-1.61,0.38-1.62,5.34 c-0.01,4.15,0.6,5.29,1.58,5.34c1.56,0.07,2.39-2.68,2.39-2.68s1.09-0.39,1.81-0.43c0.73-0.04,1.3,0.34,2.2,0.64 c0.9,0.3,2.01,0.42,2.01,0.42s-2.87,2.48-3.89,5.77s-1.07,6.53-0.81,6.74c0.26,0.21,8.07,0.3,8.37,0.09c0.3-0.21-0.08-8.63,1.5-11.4 s3.7-5.49,3.7-6.09c0-0.6-1-2.84-1.69-3.1c-0.68-0.26-1.96,0.79-3.75,0.71c-1.79-0.09-3.94-1.76-5-2.07 C81.91,63.32,80.15,65.81,78.86,65.9z" fill="#FF2B26"/>
</svg>

<svg viewBox="0 0 128 128" xmlns="http://www.w3.org/2000/svg">
  <defs/>
  <path d="M105.77,90.9 L113.9,90.85 L114.06,73.23 L119.2,73.31 C119.2,73.31 119.04,92.16 119.04,93.46 C119.04,94.77 118.22,96.07 117.08,96.23 C115.94,96.39 106.96,96.39 106.96,96.39 L105.77,90.9 Z" fill="#9A9A9A"/>
  <path d="M109.29,67.63 C109.17,71.59 111.54,75.45 116.85,75.4 C122.16,75.35 124,72.14 124.11,68.19 C124.21,64.63 121.96,60.22 116.6,60.37 C111.75,60.51 109.39,64.33 109.29,67.63 Z" fill="#DB0D2B"/>
  <path d="M111.89,68.69 C113.74,69.49 113.82,67.36 114.83,65.95 C115.85,64.53 117.55,63.98 116.6,62.83 C116.01,62.12 114.07,61.45 112.17,63.91 C110.87,65.58 110.33,68.01 111.89,68.69 Z" fill="#FFFFFF"/>
  <path d="M6.38,100.31 C6.38,100.31 6.38,58.72 6.79,51.63 C7.2,44.54 13.47,25.31 37.06,17.54 C60.65,9.77 82.83,18.43 91.59,26 C107.68,39.91 107.41,52.86 107.41,52.86 L107.55,99.22 C107.55,99.22 110.7,103.29 110.7,104.38 C110.7,105.47 110.68,107.94 110.68,107.94 L3.1,108.22 C3.1,108.22 3,105.32 3.54,104.09 C4.08,102.86 6.38,100.31 6.38,100.31 Z" fill="#CACACA"/>
  <path d="M55.88,4.67 C51.01,4.67 47.9,7.9 46.93,10.33 C46.09,12.45 46.02,15.26 46.02,15.26 C46.02,15.26 48.59,15.8 56.06,15.8 C63.53,15.8 65.5,15.09 65.5,15.09 C65.5,15.09 65.85,12.07 64.71,9.99 C63.41,7.61 60.98,4.67 55.88,4.67 Z" fill="#DB0A27"/>
  <path d="M47.85,12.81 C49.13,14.35 51.78,13.48 54.16,11.58 C56.13,10 58.33,7.02 57.17,6.02 C55.5,4.59 52.65,5.55 50.14,7.5 C48.58,8.72 46.71,11.45 47.85,12.81 Z" fill="#FF4E23"/>
  <path d="M49.19,11.62 C49.98,12.25 51.08,11.11 52.57,9.86 C53.83,8.81 55.71,7.72 54.98,6.83 C54.24,5.93 52.27,6.75 50.85,7.89 C49.59,8.88 47.96,10.64 49.19,11.62 Z" fill="#FFFDFD"/>
  <path d="M3.35,105.01 C2.86,105.87 2.61,120.11 3.79,121 C4.97,121.89 27.48,121.15 57.23,121.15 C86.98,121.15 108.74,121 109.78,119.67 C111.27,117.75 111.2,104.91 110.75,104.17 C109.89,102.73 82.98,103.98 57.08,104.13 C30.43,104.27 4.12,103.65 3.35,105.01 Z" fill="#9A9A9A"/>
  <path d="M8.97,108.27 C7.93,108.71 7.79,116.86 8.97,117.15 C10.41,117.51 42.89,117.24 56.51,117.24 C70.13,117.24 103.86,117.74 105.19,116.56 C106.52,115.38 106.4,108.93 105.51,107.89 C104.62,106.85 69.81,107.68 56.78,107.68 C43.75,107.68 11.1,107.35 8.97,108.27 Z" fill="#858585"/>
  <path d="M11.64,51.42 C11.34,52.46 11.2,97.01 11.64,97.31 C12.08,97.61 101.64,97.9 102.53,97.01 C103.42,96.12 102.83,52.16 102.68,51.27 C102.53,50.38 56.64,49.35 56.64,49.35 L11.64,51.42 Z" fill="#6F7178"/>
  <path d="M14.73,54.74 C14.56,55.2 14.82,94.22 15.24,94.65 C15.67,95.08 99.26,94.48 99.69,94.14 C100.12,93.8 100.03,54.79 99.69,54.49 C99.35,54.18 14.9,54.26 14.73,54.74 Z" fill="#3A3839"/>
  <path d="M57.34,18.42 C37.28,18.24 25.01,27.41 19.42,34.83 C13.83,42.25 10.77,49.1 11.63,51.42 C11.86,52.05 26.35,51.48 55.64,51.6 C84.93,51.72 102.19,52.16 102.67,51.27 C103.16,50.38 101.16,40.31 90.27,30.94 C81.53,23.4 71.2,18.54 57.34,18.42 Z" fill="#FFDB8B"/>
  <path d="M14.88,48.54 C14.88,48.54 24.81,20.68 56.41,20.95 C91.02,21.25 98.04,48.34 98.04,48.34 L14.88,48.54 Z" fill="#FFAF29"/>
  <path d="M29.89,34.82 C23.92,40.24 21.31,45.84 21.31,45.84 C21.31,45.84 43.57,46.3 43.63,45.96 C43.7,45.53 29.89,34.82 29.89,34.82 Z" fill="#FFD61C"/>
  <path d="M43.69,26.61 C39.67,27.91 36.24,29.76 33.37,31.81 C37.15,35.25 47.6,43.23 49.02,44.24 C50.71,45.44 51.27,46.09 51.65,45.86 C51.96,45.68 51.12,44.1 50.85,43.45 C50.38,42.3 45.18,30.71 43.69,26.61 Z" fill="#FFD61C"/>
  <path d="M62.48,25.24 C60.42,24.92 57.85,24.62 55.57,24.64 C52.79,24.66 50.9,24.94 48.5,25.42 C48.5,25.42 56.38,44.91 56.55,45.38 C56.73,45.85 57.13,46.33 57.35,45.38 C57.56,44.44 62.48,25.24 62.48,25.24 Z" fill="#FFD61C"/>
  <path d="M70.67,46.13 C70.81,46.44 92.23,46.26 92.23,46.26 C92.23,46.26 89.17,40.43 82.75,34.85 C82.75,34.84 70.41,45.54 70.67,46.13 Z" fill="#FFD61C"/>
  <path d="M78.96,31.72 C75.7,29.44 71.83,27.4 67.29,26.08 C66.02,30.88 63.24,42.51 62.96,43.98 C62.85,44.53 62.46,45.7 62.73,45.92 C63.01,46.15 64.02,45.5 64.89,44.66 C65.88,43.7 78.96,31.72 78.96,31.72 Z" fill="#FFD61C"/>
  <path d="M41.57,74.52 C41.39,65.09 43.81,59.64 45.05,57.49 L23.41,57.52 C23.41,57.52 18.07,64.17 17.98,73.82 C17.89,83.47 23.04,91.81 23.04,91.81 L44.95,91.72 C43.9,89.52 41.75,83.88 41.57,74.52 Z" fill="#FFFFFF"/>
  <path d="M70.17,74.52 C70.47,65.81 68.34,59.92 67.22,57.46 L47.33,57.49 C46.11,60.4 43.93,66.7 44.11,74.36 C44.3,82.71 46.49,89.31 47.4,91.72 L67.91,91.64 C68.6,88.96 69.87,82.99 70.17,74.52 Z" fill="#FFFFFF"/>
  <path d="M91.71,57.43 L69.96,57.46 C71.25,60.67 73.36,67.24 72.96,75.1 C72.55,83.01 71.13,89.11 70.45,91.62 L91.06,91.53 C91.06,91.53 96.31,85.16 96.78,75.23 C97.24,65.3 91.71,57.43 91.71,57.43 Z" fill="#FFFFFF"/>
  <path d="M27.65,91.81 L37.54,91.76 C37.54,91.76 36.78,88.98 33.02,89.08 C29.18,89.2 27.65,91.81 27.65,91.81 Z" fill="#FAB037"/>
  <path d="M54.08,91.7 L61.66,91.66 C61.66,91.66 61.59,89.37 57.88,89.42 C54.68,89.46 54.21,91.44 54.08,91.7 Z" fill="#FFD429"/>
  <path d="M78.53,91.6 L87.3,91.55 C87.3,91.55 87.75,89.05 85.49,88.85 C83.57,88.68 83.1,90.47 83.1,90.47 C83.1,90.47 82.68,89.18 81.01,89.15 C79,89.11 78.44,91.3 78.53,91.6 Z" fill="#A75FB7"/>
  <path d="M76.73,57.45 L88.24,57.43 C88.24,57.43 88.31,61.01 83.82,61.1 C77.42,61.23 76.73,57.45 76.73,57.45 Z" fill="#FEBF21"/>
  <path d="M53.31,57.47 C53.31,57.47 52.58,59.94 53.09,60.42 C53.69,60.97 61.75,61.08 62.31,60.4 C62.87,59.71 62.17,57.46 62.17,57.46 L53.31,57.47 Z" fill="#5B6467"/>
  <path d="M27.29,57.5 L38.79,57.48 C38.79,57.48 38.9,60.41 33.73,60.47 C27.87,60.55 27.29,57.5 27.29,57.5 Z" fill="#4E9226"/>
  <path d="M51.64,66.61 C51.21,66.64 50.57,64.82 49.8,64.99 C49.03,65.16 47.96,65.37 48.18,70.33 C48.4,75.29 48.78,75.71 49.76,75.67 C50.74,75.63 52.24,72.77 52.24,72.77 C52.24,72.77 53.29,72.32 54.02,72.27 C54.75,72.23 55.27,72.89 56.17,73.19 C57.07,73.49 58.35,73.53 58.35,73.53 C58.35,73.53 55.32,76.09 54.29,79.38 C53.26,82.67 53.22,85.91 53.48,86.12 C53.74,86.33 61.55,86.42 61.85,86.21 C62.15,86 61.72,77.16 63.3,74.39 C64.88,71.62 67.01,68.29 67.01,68.29 C67.01,68.29 66.2,66.11 65.52,65.86 C64.84,65.6 63.39,66.67 61.59,66.59 C59.8,66.5 57.7,64.72 56.64,64.41 C54.84,63.88 52.92,66.52 51.64,66.61 Z" fill="#FF2B26"/>
  <path d="M24.66,66.4 C24.23,66.43 23.63,64.98 22.84,64.93 C21.93,64.87 21.26,65.01 21.2,69.96 C21.15,74.82 21.82,75.82 22.8,75.78 C23.78,75.74 25.27,72.7 25.27,72.7 C25.27,72.7 26.07,72.2 26.82,72.45 C27.51,72.68 28.05,73.13 29.1,73.28 C30.04,73.41 31.1,73.57 31.1,73.57 C31.1,73.57 28.35,76.04 27.32,79.32 C26.3,82.61 26.25,85.85 26.51,86.06 C26.77,86.27 34.58,86.36 34.88,86.15 C35.18,85.94 34.94,77.4 36.52,74.62 C38.1,71.84 40.05,68.22 40.05,68.22 C40.05,68.22 39.24,66.04 38.56,65.79 C37.88,65.53 36.1,66.38 34.31,66.29 C32.52,66.2 30.57,64.56 29.47,64.4 C27.43,64.1 25.94,66.32 24.66,66.4 Z" fill="#FF2B26"/>
  <path d="M78.86,65.9 C78.43,65.93 77.67,64.4 76.91,64.57 C76.14,64.74 75.3,64.95 75.29,69.91 C75.28,74.06 75.89,75.2 76.87,75.25 C78.43,75.32 79.26,72.57 79.26,72.57 C79.26,72.57 80.35,72.18 81.07,72.14 C81.8,72.1 82.37,72.48 83.27,72.78 C84.17,73.08 85.28,73.2 85.28,73.2 C85.28,73.2 82.41,75.68 81.39,78.97 C80.37,82.26 80.32,85.5 80.58,85.71 C80.84,85.92 88.65,86.01 88.95,85.8 C89.25,85.59 88.87,77.17 90.45,74.4 C92.03,71.63 94.15,68.91 94.15,68.31 C94.15,67.71 93.15,65.47 92.46,65.21 C91.78,64.95 90.5,66 88.71,65.92 C86.92,65.83 84.77,64.16 83.71,63.85 C81.91,63.32 80.15,65.81 78.86,65.9 Z" fill="#FF2B26"/>
</svg>
